X:282
T:Karl XII:s vals efter Gås-Anders
S:efter Gås-Anders
O:Uppland
B:Melodier från Upplands bruk och Fyris bygder häfte 2, nr. 28
R:Vals
Z:Nils
M: 3/4
L: 1/8
K: G
([gB]f) (ga) bg | d2 (BG) Bd | (cB) (Ad) fa | (ga) (bg) dB |
(gf) (ga) bg | d2 (BG) Bd | (cB) (Ad) fa |1 [g4B4]!fine! zd :|2 [g4B4] zB |] |:
(dB) (GB) dB | (cA) (FA) cA | (BG) (EG) cB | (AG) (FE) D2 |
(BG) (EG) cB | (AG) (FA) ed | {/d}(cB) (cD) FA |1 G4 zB :|2 G4 zD |] |:
D2 {/c}(BA) B2 | (BG) (GD) [E2C2]- | [E2C2]{/d}(cB) c2 | (cB) (AG) FE |
D2 {/c}(BA) Bc | d2 (dB) dg | e2 (e^c) ef |1 d4 zD :|2 d4 z!D.C.!d |]
(:musicend:)
(:music:)
